vcvrack/res/snecho.svg

<?xml version="1.0" encoding="UTF-8" standalone="no"?>
<svg
   version="1.1"
   width="71.120003mm"
   height="128.5mm"
   viewBox="0 0 71.120003 128.5"
   id="svg8664"
   sodipodi:docname="snecho.svg"
   inkscape:version="1.2.2 (732a01da63, 2022-12-09)"
   xmlns:inkscape="http://www.inkscape.org/namespaces/inkscape"
   xmlns:sodipodi="http://sodipodi.sourceforge.net/DTD/sodipodi-0.dtd"
   xmlns="http://www.w3.org/2000/svg"
   xmlns:svg="http://www.w3.org/2000/svg"
   xmlns:rdf="http://www.w3.org/1999/02/22-rdf-syntax-ns#"
   xmlns:cc="http://creativecommons.org/ns#"
   xmlns:dc="http://purl.org/dc/elements/1.1/">
  <defs
     id="defs8668" />
  <sodipodi:namedview
     id="namedview8666"
     pagecolor="#ffffff"
     bordercolor="#000000"
     borderopacity="0.25"
     inkscape:showpageshadow="2"
     inkscape:pageopacity="0.0"
     inkscape:pagecheckerboard="0"
     inkscape:deskcolor="#d1d1d1"
     inkscape:document-units="mm"
     showgrid="false"
     showguides="true"
     inkscape:zoom="1.1851376"
     inkscape:cx="9.2816227"
     inkscape:cy="240.47841"
     inkscape:window-width="1920"
     inkscape:window-height="1017"
     inkscape:window-x="-8"
     inkscape:window-y="-8"
     inkscape:window-maximized="1"
     inkscape:current-layer="layer4">
    <inkscape:grid
       type="xygrid"
       id="grid13701"
       originx="0"
       originy="0" />
  </sodipodi:namedview>
  <title
     id="title2">SVG Image created as ES_Daisy_Patch_SM_FB_Rev1-brd.svg date 2024/04/30 13:34:42 </title>
  <desc
     id="desc4">Image generated by PCBNEW </desc>
  <g
     style="display:none;fill:#000000;fill-opacity:1;stroke:#000000;stroke-linecap:round;stroke-linejoin:round;stroke-opacity:1"
     id="g6" />
  <g
     inkscape:groupmode="layer"
     id="layer2"
     inkscape:label="holes"
     style="display:inline;fill:#280b0b"
     sodipodi:insensitive="true">
    <g
       inkscape:label="EuroPanel"
       id="g721">
      <rect
         style="fill:#e6e6e6;stroke:none;stroke-width:0mm"
         height="128.5"
         width="70.760002"
         x="0"
         y="0"
         rx="0"
         ry="0"
         id="rect711" />
      <rect
         style="fill:#ffffff;stroke:none;stroke-width:0mm"
         height="3.2"
         width="5.5"
         x="4.75"
         y="123.9"
         rx="1.6"
         ry="0"
         id="rect713" />
      <rect
         style="fill:#ffffff;stroke:none;stroke-width:0mm"
         height="3.2"
         width="5.5"
         x="4.75"
         y="1.4"
         rx="1.6"
         ry="0"
         id="rect715" />
      <rect
         style="fill:#ffffff;stroke:none;stroke-width:0mm"
         height="3.2"
         width="5.5"
         x="60.630001"
         y="123.9"
         rx="1.6"
         ry="0"
         id="rect717" />
      <rect
         style="fill:#ffffff;stroke:none;stroke-width:0mm"
         height="3.2"
         width="5.5"
         x="60.630001"
         y="1.4"
         rx="1.6"
         ry="0"
         id="rect719" />
    </g>
  </g>
  <g
     inkscape:groupmode="layer"
     id="layer1"
     inkscape:label="bg"
     style="display:inline" />
  <g
     inkscape:groupmode="layer"
     id="layer4"
     inkscape:label="fg">
    <g
       aria-label="SNECHO"
       id="text1062-1"
       style="font-weight:bold;font-size:6.35px;font-family:'Segoe UI';-inkscape-font-specification:'Segoe UI Bold';display:inline;fill:#ffff00;stroke-width:0.264583">
      <path
         d="m 23.085899,13.872521 v -0.992187 q 0.269751,0.226343 0.586011,0.341064 0.316259,0.111621 0.63872,0.111621 0.189136,0 0.328662,-0.03411 0.142627,-0.03411 0.235645,-0.09302 0.09612,-0.06201 0.142627,-0.142627 0.04651,-0.08372 0.04651,-0.179833 0,-0.130225 -0.07441,-0.232544 -0.07441,-0.10232 -0.204639,-0.189136 -0.127124,-0.08682 -0.303857,-0.167432 -0.176734,-0.08061 -0.381372,-0.164331 -0.520899,-0.217041 -0.778248,-0.5302 -0.254248,-0.313159 -0.254248,-0.756543 0,-0.347266 0.139527,-0.595313 0.139526,-0.251147 0.378271,-0.4123774 0.241846,-0.1612305 0.558106,-0.2356446 0.31626,-0.077515 0.669726,-0.077515 0.347266,0 0.613916,0.043408 0.269751,0.040308 0.496094,0.127124 v 0.9270754 q -0.111621,-0.07752 -0.244946,-0.136426 -0.130225,-0.05891 -0.269751,-0.09612 -0.139527,-0.04031 -0.279053,-0.05891 -0.136426,-0.0186 -0.260449,-0.0186 -0.170532,0 -0.310059,0.03411 -0.139526,0.03101 -0.235644,0.08992 -0.09612,0.05891 -0.148828,0.142627 -0.05271,0.08061 -0.05271,0.182934 0,0.111621 0.05891,0.201538 0.05891,0.08682 0.167431,0.167432 0.108521,0.07752 0.26355,0.155029 0.15503,0.07441 0.350366,0.155029 0.266651,0.111622 0.477491,0.238746 0.21394,0.124023 0.365869,0.282153 0.151929,0.15813 0.232544,0.362768 0.08062,0.201539 0.08062,0.47129 0,0.37207 -0.142627,0.626318 -0.139526,0.251147 -0.381372,0.409277 -0.241846,0.155029 -0.564307,0.223242 -0.31936,0.06821 -0.675927,0.06821 -0.36587,0 -0.697632,-0.06201 -0.328662,-0.06201 -0.570508,-0.186036 z"
         style="fill:#000000"
         id="path262" />
      <path
         d="m 30.849766,14.043054 h -1.010791 l -1.832446,-2.793628 q -0.161231,-0.244947 -0.223242,-0.36897 h -0.0124 q 0.02481,0.235645 0.02481,0.719336 v 2.443262 H 26.85001 V 9.5968135 h 1.079004 l 1.764233,2.7068115 q 0.120923,0.182935 0.223243,0.362768 h 0.0124 q -0.02481,-0.155029 -0.02481,-0.610815 V 9.5968135 h 0.945679 z"
         style="fill:#000000"
         id="path264" />
      <path
         d="M 34.533262,14.043054 H 31.866758 V 9.5968135 h 2.564185 v 0.8154545 h -1.562696 v 0.989086 h 1.454175 v 0.812354 H 32.868247 V 13.2307 h 1.665015 z"
         style="fill:#000000"
         id="path266" />
      <path
         d="m 38.433799,13.884924 q -0.486792,0.235644 -1.27124,0.235644 -1.023193,0 -1.609204,-0.601513 -0.586011,-0.601514 -0.586011,-1.603003 0,-1.066602 0.657324,-1.730127 0.660425,-0.6635256 1.711524,-0.6635256 0.651123,0 1.097607,0.1643311 v 0.9642825 q -0.446484,-0.266651 -1.016992,-0.266651 -0.626318,0 -1.010791,0.393775 -0.384473,0.393774 -0.384473,1.066601 0,0.644922 0.362769,1.029395 0.362768,0.381372 0.976684,0.381372 0.586011,0 1.072803,-0.285254 z"
         style="fill:#000000"
         id="path268" />
      <path
         d="m 43.056772,14.043054 h -1.00459 v -1.810743 h -1.841748 v 1.810743 H 39.208945 V 9.5968135 h 1.001489 v 1.7735355 h 1.841748 V 9.5968135 h 1.00459 z"
         style="fill:#000000"
         id="path270" />
      <path
         d="m 45.952719,14.120568 q -0.954981,0 -1.556494,-0.620117 -0.601514,-0.623218 -0.601514,-1.621606 0,-1.0542 0.610815,-1.705323 0.610816,-0.6511226 1.618506,-0.6511226 0.95188,0 1.537891,0.6232176 0.589111,0.623218 0.589111,1.643311 0,1.047998 -0.610815,1.689819 -0.607715,0.641821 -1.5875,0.641821 z m 0.04341,-3.736206 q -0.5271,0 -0.837158,0.396875 -0.310059,0.393775 -0.310059,1.044898 0,0.660425 0.310059,1.044897 0.310058,0.384473 0.812353,0.384473 0.517798,0 0.821655,-0.37207 0.303858,-0.375171 0.303858,-1.038697 0,-0.69143 -0.294556,-1.075903 -0.294555,-0.384473 -0.806152,-0.384473 z"
         style="fill:#000000"
         id="path272" />
    </g>
  </g>
  <metadata
     id="metadata13212">
    <rdf:RDF>
      <cc:Work
         rdf:about="">
        <dc:title>SVG Image created as ES_Daisy_Patch_SM_FB_Rev1-brd.svg date 2024/04/30 13:34:42 </dc:title>
      </cc:Work>
    </rdf:RDF>
  </metadata>
  <g
     inkscape:groupmode="layer"
     id="layer3"
     inkscape:label="components"
     style="display:inline" />
</svg>

<svg xmlns="http://www.w3.org/2000/svg" width="840" height="1517.7166">
    <defs />
    <g transform="matrix(11.811024 0 0 11.811024 0 0.00006104)">
        <g id="layer2">
            <g id="g721">
                <path id="rect711" fill="#e6e6e6" stroke="none" d="M 0 0 L 70.76 0 L 70.76 128.5 L 0 128.5 Z" />
                <path id="rect713" fill="#ffffff" stroke="none" d="M 6.35 123.90001 L 8.65 123.90001 L 10.25 123.90001 L 10.25 127.1 L 8.65 127.1 L 6.35 127.1 L 4.75 127.1 L 4.75 123.90001 L 6.35 123.90001 Z" />
                <path id="rect715" fill="#ffffff" stroke="none" d="M 6.35 1.4 L 8.65 1.4 L 10.25 1.4 L 10.25 4.6 L 8.65 4.6 L 6.35 4.6 L 4.75 4.6 L 4.75 1.4 L 6.35 1.4 Z" />
                <path id="rect717" fill="#ffffff" stroke="none" d="M 62.23 123.90001 L 64.53001 123.90001 L 66.130005 123.90001 L 66.130005 127.1 L 64.53001 127.1 L 62.23 127.1 L 60.63 127.1 L 60.63 123.90001 L 62.23 123.90001 Z" />
                <path id="rect719" fill="#ffffff" stroke="none" d="M 62.23 1.4 L 64.53001 1.4 L 66.130005 1.4 L 66.130005 4.6 L 64.53001 4.6 L 62.23 4.6 L 60.63 4.6 L 60.63 1.4 L 62.23 1.4 Z" />
            </g>
        </g>
        <g id="layer1" />
        <g id="layer4">
            <g id="text1062-1">
                <path id="path262" fill="#000000" stroke="none" d="M 23.085897 13.872521 L 23.085897 12.880334 Q 23.35565 13.106676 23.671911 13.221397 Q 23.988167 13.333019 24.31063 13.333019 Q 24.499765 13.333019 24.639292 13.298909 Q 24.78192 13.264799 24.874937 13.20589 Q 24.971056 13.143878 25.017565 13.063261 Q 25.064074 12.979542 25.064074 12.88343 Q 25.064074 12.753204 24.989666 12.650886 Q 24.915255 12.548565 24.785025 12.461748 Q 24.657902 12.37493 24.48117 12.294317 Q 24.304432 12.213708 24.099796 12.129985 Q 23.578897 11.912945 23.321548 11.599786 Q 23.067299 11.286627 23.067299 10.843243 Q 23.067299 10.495977 23.206827 10.24793 Q 23.346354 9.996783 23.585098 9.835552 Q 23.826944 9.674322 24.143204 9.599908 Q 24.459463 9.522393 24.812927 9.522393 Q 25.160196 9.522393 25.426847 9.565801 Q 25.696596 9.606109 25.92294 9.692925 L 25.92294 10.620001 Q 25.811321 10.54248 25.677994 10.483575 Q 25.547768 10.4246645 25.408243 10.387454 Q 25.268719 10.347144 25.12919 10.328545 Q 24.992764 10.309944 24.868742 10.309944 Q 24.69821 10.309944 24.558681 10.344054 Q 24.419153 10.375065 24.323038 10.433974 Q 24.22692 10.492885 24.174212 10.576601 Q 24.1215 10.657211 24.1215 10.759536 Q 24.1215 10.871157 24.18041 10.961074 Q 24.23932 11.047894 24.34784 11.128506 Q 24.456362 11.206025 24.611391 11.283534 Q 24.76642 11.3579445 24.96176 11.438564 Q 25.228409 11.550185 25.439247 11.677309 Q 25.653189 11.801332 25.805117 11.959462 Q 25.957047 12.117592 26.03766 12.322229 Q 26.11828 12.523769 26.11828 12.793519 Q 26.11828 13.165589 25.975655 13.419837 Q 25.83613 13.670985 25.59428 13.829116 Q 25.352436 13.984144 25.029976 14.052357 Q 24.710615 14.120567 24.354048 14.120567 Q 23.988178 14.120567 23.656414 14.0585575 Q 23.327755 13.996548 23.085909 13.872521 Z" />
                <path id="path264" fill="#000000" stroke="none" d="M 30.849766 14.043054 L 29.838976 14.043054 L 28.006529 11.249426 Q 27.845299 11.00448 27.783289 10.880456 L 27.770887 10.880456 Q 27.795696 11.116101 27.795696 11.599792 L 27.795696 14.043054 L 26.85001 14.043054 L 26.85001 9.596813 L 27.929014 9.596813 L 29.693249 12.303625 Q 29.814169 12.48656 29.91649 12.666393 L 29.92889 12.666393 Q 29.90408 12.511364 29.90408 12.055577 L 29.90408 9.596813 L 30.849758 9.596813 Z" />
                <path id="path266" fill="#000000" stroke="none" d="M 34.53326 14.043054 L 31.866756 14.043054 L 31.866756 9.596813 L 34.430943 9.596813 L 34.430943 10.412268 L 32.868248 10.412268 L 32.868248 11.401354 L 34.322422 11.401354 L 34.322422 12.213708 L 32.868248 12.213708 L 32.868248 13.2307 L 34.53326 13.2307 Z" />
                <path id="path268" fill="#000000" stroke="none" d="M 38.4338 13.884924 Q 37.947006 14.120568 37.16256 14.120568 Q 36.139366 14.120568 35.553356 13.519055 Q 34.967342 12.9175415 34.967342 11.916053 Q 34.967342 10.84945 35.62467 10.185925 Q 36.28509 9.522399 37.336193 9.522399 Q 37.987316 9.522399 38.4338 9.68673 L 38.4338 10.651013 Q 37.987316 10.384362 37.416805 10.384362 Q 36.79049 10.384362 36.406017 10.778137 Q 36.02154 11.171911 36.02154 11.844739 Q 36.02154 12.48966 36.38431 12.874132 Q 36.74708 13.255505 37.360996 13.255505 Q 37.947006 13.255505 38.4338 12.970251 Z" />
                <path id="path270" fill="#000000" stroke="none" d="M 43.056767 14.043054 L 42.05218 14.043054 L 42.05218 12.232311 L 40.210434 12.232311 L 40.210434 14.043054 L 39.208946 14.043054 L 39.208946 9.596813 L 40.210434 9.596813 L 40.210434 11.370349 L 42.05218 11.370349 L 42.05218 9.596813 L 43.056767 9.596813 Z" />
                <path id="path272" fill="#000000" stroke="none" d="M 45.95272 14.120568 Q 44.997738 14.120568 44.396225 13.50045 Q 43.794712 12.877233 43.794712 11.878845 Q 43.794712 10.824645 44.405525 10.173522 Q 45.016342 9.522399 46.024033 9.522399 Q 46.975906 9.522399 47.561924 10.145617 Q 48.151035 10.768834 48.151035 11.788928 Q 48.151035 12.836926 47.54022 13.478746 Q 46.9325 14.120568 45.95272 14.120568 Z M 45.996128 10.384362 Q 45.469032 10.384362 45.15897 10.781237 Q 44.84891 11.175012 44.84891 11.826135 Q 44.84891 12.48656 45.15897 12.871033 Q 45.469032 13.255505 45.97132 13.255505 Q 46.48912 13.255505 46.79298 12.883435 Q 47.096836 12.508264 47.096836 11.844739 Q 47.096836 11.153308 46.802277 10.768834 Q 46.507725 10.384362 45.996128 10.384362 Z" />
            </g>
        </g>
        <g id="layer3" />
    </g>
</svg>
